Newaita/actions/24/kt-stop-all.svg

<svg height="24" viewBox="0 0 24 24" width="24" xmlns="http://www.w3.org/2000/svg"><g fill="#424242"><path d="m2.976562 7.628906h6.945313c.550781 0 .992187.445313.992187.992188v6.945312c0 .550782-.441406.992188-.992187.992188h-6.945313c-.546874 0-.992187-.441406-.992187-.992188v-6.945312c0-.546875.445313-.992188.992187-.992188zm0 0"/><path d="m13.890625 7.628906h6.949219c.546875 0 .992187.445313.992187.992188v6.945312c0 .550782-.445312.992188-.992187.992188h-6.949219c-.546875 0-.992187-.441406-.992187-.992188v-6.945312c0-.546875.445312-.992188.992187-.992188zm0 0"/></g></svg>

<?xml version="1.0" encoding="UTF-8"?>
<svg xmlns="http://www.w3.org/2000/svg" xmlns:xlink="http://www.w3.org/1999/xlink" width="24px" height="24px" viewBox="0 0 24 24" version="1.1">
<g id="surface1">
<path style=" stroke:none;fill-rule:nonzero;fill:rgb(25.882354%,25.882354%,25.882354%);fill-opacity:1;" d="M 2.976562 7.628906 L 9.921875 7.628906 C 10.472656 7.628906 10.914062 8.074219 10.914062 8.621094 L 10.914062 15.566406 C 10.914062 16.117188 10.472656 16.558594 9.921875 16.558594 L 2.976562 16.558594 C 2.429688 16.558594 1.984375 16.117188 1.984375 15.566406 L 1.984375 8.621094 C 1.984375 8.074219 2.429688 7.628906 2.976562 7.628906 Z M 2.976562 7.628906 "/>
<path style=" stroke:none;fill-rule:nonzero;fill:rgb(25.882354%,25.882354%,25.882354%);fill-opacity:1;" d="M 13.890625 7.628906 L 20.839844 7.628906 C 21.386719 7.628906 21.832031 8.074219 21.832031 8.621094 L 21.832031 15.566406 C 21.832031 16.117188 21.386719 16.558594 20.839844 16.558594 L 13.890625 16.558594 C 13.34375 16.558594 12.898438 16.117188 12.898438 15.566406 L 12.898438 8.621094 C 12.898438 8.074219 13.34375 7.628906 13.890625 7.628906 Z M 13.890625 7.628906 "/>
</g>
</svg>
